!!!COM: Bach, Johann Sebastian
!!!OPR: Das wohltemperirte Clavier, Band II
!!!XEN: Well-Tempered Clavier, Volume II
!!!OTL: Prelude in D-sharp Minor
!!!OMV: Prelude VIII
!!!SCT: BWV 877
!!!SCA: Thematisch-systematisches Verzeichnis der musikalischen Werke Johann Sebastian Bach: Bach-Werke-Verzeichnis (Schmieder)
!!!YOR: Bach Gesellschaft Edition xiv
!!!EED: Walter Hewlett
!!!ENC: Walter Hewlett
!!!CDT: 1685/3//-1750/7/28/
!!!OCY: Deutschland
!!!YEC: Copyright (c) 1994, 2000 Center for Computer Assisted Research in the Humanities
!!!YEM: Rights to all derivative editions reserved
!!!YEM: Refer to licensing agreement for further details
!!!YEN: United States of America
**kern
*I:
*>[A,B,B]
*>A
*clefG6
*k[f#c#g#d#a#e#]
*d#:
*M4/4
=1-
*^
16d#/LL	4D#M\
16f#/	.
16e#/	.
16g#/JJ	.
16f#/LL	4DD#/
16a#/	.
16g#/	.
16b/JJ	.
16a#\LL	2r
16dd#\	.
16cc##\	.
16b#\JJ	.
16a#/LL	.
16g#/	.
16f#/	.
16e#/JJ	.
=2	=2
8f#/L	16D#\LL
.	16F#\
8c##/	16E#\
.	16G#\JJ
8d#/	16F#\LL
.	16A#\
8dd#/J	16G#\
.	16B\JJ
16cc##t\LL	16A#\LL
16b#\J	16d#\
8a#\J	16c##\
.	16B#\JJ
8r	16A#\LL
.	16G#\
8cc##S\	16F#\
.	16E#\JJ
=3	=3
16dd#\LL	8F#\L
16ff#\	.
16ee#\	8C##\
16gg#\JJ	.
16ff#\LL	8D#\
16ee#\	.
16dd#\	8F#\J
16cc#\JJ	.
8b\L	16G#\LL
.	16B\
8dd#\J	16A#\
.	16c#\JJ
[4gg#M\	16B\LL
.	16A#\
.	16G#\
.	16F#\JJ
=4	=4
16gg#\LL]	8E#\L
16ee#\	.
16ff#\	8G#\J
16dd#\JJ	.
16ee#\LL	[4c#M\
16gg#\	.
16cc#\	.
16b\JJ	.
8a#\L	16c#\LL]
.	16A#\
8cc#\J	16B\
.	16G#\JJ
[4ff#m\	16A#\LL
.	16c#\
.	16F#\
.	16E#\JJ
=5	=5
16ff#\LL]	8D#\L
16ee#\	.
16dd#\	8F#\J
16cc##\JJ	.
16dd#\LL	4BM\
16ff#\	.
16g#\	.
16ff#\JJ	.
16ee#\LL	8C#\L
16dd#\	.
16cc#\	8E#\J
16b#\JJ	.
16cc#\LL	4A#M\
16een\	.
16f#\	.
16ee\JJ	.
=6	=6
16dd#\LL	8BB\L
16cc#\	.
16b\	8D#\
16a#\JJ	.
16b/LL	8G#\
16dd#/	.
16e#/	8C#\J
16dd#/JJ	.
16b/LL	8D#\L
16dd#/	.
16f#/	8B\
16dd#/JJ	.
16b/LL	8G#\
16dd#/	.
16g#/	8E#\J
16dd#/JJ	.
=7	=7
16cc#/LL	8AA#/L
16b/	.
16a#/	8C#/
16g#/JJ	.
16a#/LL	8F#/
16cc#/	.
16d#/	8BB/J
16cc#/JJ	.
16a#/LL	8C#\L
16cc#/	.
16e#/	8A#\
16cc#/JJ	.
16a#/LL	8F#\
16cc#/	.
16f#/	8D#\J
16cc#/JJ	.
=8	=8
16b/LL	8GG#/L
16a#/	.
16g#/	8BB/
16f#/JJ	.
16g#/LL	8E#/
16b/	.
16c#/	8AA#/J
16b/JJ	.
16g#/LL	8BB/L
16b/	.
16d#/	8G#/
16b/JJ	.
16g#/LL	8E#/
16b/	.
16e#/	8C#/J
16b/JJ	.
=9	=9
16a#/LL	16FF#/LL
16f#/	16AA#/
16e#/	16GG#/
16dd#/JJ	16BB/JJ
16cc#/LL	16AA#/LL
16a#/	16C#/
16g#/	16BB/
! Possibly an F#4 in some sources	!
16ff#/JJ	16D#/JJ
16ee#t\LL	16C#\LL
16dd#\J	16F#\
8cc#\J	16E#\
.	16D#\JJ
4r	16C#/LL
.	16BB/
.	16AA#/
.	16GG#/JJ
=10	=10
16f#/LL	8AA#\L
16a#/	.
16g#/	8C#\
16b/JJ	.
16a#\LL	8F#\
16cc#\	.
16b\	8G#\J
16dd#\JJ	.
16cc#\LL	8A#\L
16ff#\	.
16ee#\	8B\
16dd#\JJ	.
16cc#\LL	8c#\
16b\	.
16a#\	8C#\J
16g#\JJ	.
=11	=11
16a#\LL	8F#\L
16cc#\	.
16b#\	8D#\
16dd#\JJ	.
16cc#\LL	8E#\
16ee#\	.
16dd#\	8BB#\J
16ff#\JJ	.
16ee#\LL	8C#/L
16aa#\	.
16gg##\	8D#/
16ff##\JJ	.
16ee#\LL	8E#/
16dd#\	.
16cc#\	8EE#/J
16b#\JJ	.
=12	=12
8cc#\L	16AA#/LL
.	16C#/
8g##\	16BB#/
.	16D#/JJ
8a#\	16C#\LL
.	16E#\
8ff#\J	16D#\
.	16F#\JJ
32g##/LLL	16E#\LL
32f##/J	.
16e#/J	16A#\
8dd#/J	16G##\
.	16F##\JJ
16r	16E#\LL
16g##/LL	16D#\
16a#/	16C#\
16b#/JJ	16BB#\JJ
=13	=13
16e#/LL	16C#\LL
16cc#/	16E#\
16b#/	16D#\
16dd#/JJ	16F#\JJ
16cc#/LL	16E#\LL
16b#/	16D#\
16a#/	16C#\
16g##/JJ	16BB#\JJ
16cc#/LL	16AA#/LL
16a#/	16C#/
16g##/	16BB#/
16b#/JJ	16D#/JJ
16a#/LL	16C#/LL
16g#/	16BB#/
16f#/	16AA#/
16e#/JJ	16GG#/JJ
=14	=14
16d#/LL	16FF##/LL
16cc#/	16AA#/
16b#/	16GG##/
16dd#/JJ	16BB#/JJ
16cc#\LL	16AA#/LL
16b#\	16GG#/
16a#\	16FF#/
16g##\JJ	16EE#/JJ
16ff##\LL	8DD##/L
16cc#\	.
16g##\	8D##/J
16a#\JJ	.
8.gg##t\L	16r
.	16F#\LL
.	16E#\
32ff##\LL	16D#\JJ
32gg##\JJJ	.
=15	=15
16aa#\LL	16C#/LL
32gg#\L	16BB#/
32ff#\J	.
16ee#\	16C#/
16dd#\JJ	16D#/JJ
16cc#\LL	16E#\LL
16aa#\	16F#\
16b#\	16D#\
16gg##\JJ	16E#\JJ
16aa#\LL	8F#/L
16a#\	.
32dd#\L	8FF#/
32cc#\J	.
16b#\JJ	.
16cc#\LL	8EE#/
32b#\L	.
32a#\	.
32g##\	8DD#/J
32a#\J	.
16b#\JJ	.
=16	=16
32e#/LLL	8CC#/L
32a#/	.
32g#/	.
32f#/J	.
16e#/	16C#/L
16d#/JJ	16D#/JJ
16c#/LL	8E#/L
32B#/L	.
32c#/	.
32d#/	8EE#/J
32c#/J	.
16B#/JJ	.
16A#/LL	2AA#/
16c#/	.
16e#/	.
16g##/JJ	.
(8g##/L	.
8a#/J)	.
=17:!!:	=17:!!:
*>B	*
16gg#\LL	16AA#/LL
32ee#\L	16C##/
32cc##\JJ	.
[8a#\J	16BB#/
.	16D#/JJ
16a#\LL]	16C##\LL
32cc##\L	16E#\
32ee#\	.
32ff#\	16D#\
32ee#\J	.
16dd#\JJ	16F#\JJ
16cc##\LL	16E#\LL
32ee#\L	16G#\
32gg#\JJ	.
[8bb\J	16F#\
.	16E#\JJ
16bb\LL]	16D#/LL
32ee#\L	16C##/
32dd#\	.
32ee#\	16BB#/
32ff#\J	.
16gg#\JJ	16AA#/JJ
=18	=18
16ff#\LL	8D#\L
16ee#\	.
16dd#\	8F#\
16cc##\JJ	.
16dd#\LL	8B#\
16ff#\	.
16g#\	8E#\J
16ff#\JJ	.
16dd#\LL	8F#\L
16ff#\	.
16a#\	8d#\
16ff#\JJ	.
16dd#\LL	8B#\
16ff#\	.
16b#\	8G#\J
16ff#\JJ	.
=19	=19
16cc#\LL	16Bn\LL
16ee#\	32G#\L
.	32E#\JJ
16dd#\	[8C#\J
16ff#\JJ	.
16ee#\LL	16C#\LL]
16gg#\	32E#\L
.	32G#\
16ff#\	32A#\
.	32G#\J
16aa#\JJ	16F#\JJ
16gg#\LL	16E#\LL
16bb\	32G#\L
.	32B\JJ
16aa#\	[8d#\J
16gg#\JJ	.
16ff#\LL	16d#\LL]
16ee#\	32G#\L
.	32F#\
16dd#\	32G#\
.	32A#\J
16cc#\JJ	16B\JJ
=20	=20
16ff#\LL	16A#\LL
16b\	16G#\
16a#\	16F#\
16g#\JJ	16E#\JJ
16a#\LK	16F#\LL
8een\	16A#\
.	16BB\
16dd#\Jk	16A#\JJ
16cc#\LK	16F#\LL
8ff#\	16A#\
.	16C#\
16een\Jk	16A#\JJ
16dd#\LL	16F#\LL
16ff#\	16A#\
16bb\	16D#\
16ff##\JJ	16A#\JJ
=21	=21
16gg#\LL	16En\LL
16een\	16G#\
16dd#\	16F#\
16ff#\JJ	16An\JJ
16een\LL	16G#\LL
16dd#\	16F#\
16cc#\	16En\
16b#\JJ	16D#\JJ
16een\LL	8C#\L
16cc#\	.
16bn\	8En\J
16dd#\JJ	.
16cc#\LL	[4A#\
16b\	.
16a#\	.
16g#\JJ	.
=22	=22
8f##/L	16A#\LL]
.	16F##\
8a#/J	16G#\
.	16E#\JJ
[4dd#\	16F##\LL
.	16A#\
.	16D#\
.	16C#\JJ
16dd#\LL]	8BB/L
16b\	.
16cc#\	8D#/J
16a#\JJ	.
16b/LL	[4G#\
16dd#/	.
16g#/	.
16f#/JJ	.
=23	=23
8en/L	16G#\LL]
.	16F#\
8g#/J	16En\
.	16D#\JJ
[4cc#\	16E\LL
.	16G#\
.	16C#\
.	16BB\JJ
16cc#/LL]	16AA#\LL
16en/	16G#\
16d#/	16F##\
16c##/JJ	16E#\JJ
8d#/L	16F##\LL
.	16A#\
8a#/J	16D#\
.	16C#\JJ
=24	=24
16dd#\LL	8BB/L
32cc#\L	.
32b\	.
32a#\	8En/
32b\J	.
16cc#\JJ	.
16b\LL	8C#/
16gg#\	.
16a#\	8D#/J
16ff##\JJ	.
16gg#\LL	8GG#/L
16een\	.
16dd#\	8AA#/
16cc#\JJ	.
16dd#/LL	8BB/
16g#/	.
16f##/	8AA#/J
16cc#/JJ	.
=25	=25
16b/LL	8GG#/L
16a#/	.
16g#/	8BB/
16f##/JJ	.
16g#/LL	8E#/
16b/	.
16c#/	8AA#/J
16b/JJ	.
16g#/LL	8BB/L
16b/	.
16d#/	8G#/
16b/JJ	.
16g#/LL	8E#/
16b/	.
16e#/	8C#/J
16b/JJ	.
=26	=26
16a#/LL	8FF#/L
16g#/	.
16f#/	8AA#/
16e#/JJ	.
16f#/LL	8D#/
16a#/	.
16B#/	8GG#/J
16a#/JJ	.
16f#/LL	8AA#/L
16a#/	.
16c##/	8F#/
16a#/JJ	.
16f#/LL	8D#/
16a#/	.
16d#/	8BB/J
16a#/JJ	.
=27	=27
16g#/LL	8EE#/L
16f#/	.
16e#/	8GG#/
16d#/JJ	.
16e#/LL	8C##/
16g#/	.
16A#/	8FF#/J
16g#/JJ	.
16e#/LL	8GG#/L
16g#/	.
16B#/	8E#/
16g#/JJ	.
16e#/LL	8C##/
16g#/	.
16c##/	8AA#/J
16g#/JJ	.
=28	=28
16f#\LL	16DD#/LL
16a#\	16FF#/
16cc##\	16EE#/
16ee#\JJ	16GG#/JJ
16a#\LL	16FF#/LL
16cc##\	16AA#/
16ee#\	16GG#/
16gg#\JJ	16BB/JJ
32ff#\LLL	16AA#/LL
32ee#\J	.
16dd#\J	16D#/
8ee#\J	16C##/
.	16BB#/JJ
4r	16AA#/LL
.	16GG#/
.	16FF#/
.	16EE#/JJ
=29	=29
16d#/LL	16FF#/LL
16f#/	16AA#/
16e#/	16C##/
16g#/JJ	16E#/JJ
16f#/LL	16AA#/LL
16a#/	16C##/
16g#/	16E#/
16b/JJ	16G#/JJ
16a#\LL	32F#\LLL
.	32E#\J
16dd#\	16D#\J
16cc##\	8E#\J
16b#\JJ	.
16a#/LL	8r
16g#/	.
16f#/	8A#\
16e#/JJ	.
=30	=30
16f#/LL	8D#\L
16a#/	.
16g#/	8B\
16b/JJ	.
16a#/LL	8C#\
16g#/	.
16f#/	8A#\J
16e#/JJ	.
16d#/LL	8BB\L
16f#/	.
16e#/	8G#\
16g#/JJ	.
16f#/LL	8AA#\
16e#/	.
16d#/	8A#\J
16c##/JJ	.
=31	=31
16d#/LL	16B\LL
16g#/	16G#\
16f##/	16A#\
16a#/JJ	16c#\JJ
16g#/LL	16B\LL
16f#/	16A#\
16e#/	16G#\
16d#/JJ	16B\JJ
16c##/LL	16A#\LL
16e#/	16E#\
16d#/	16F#\
16f#/JJ	16A#\JJ
16e#/LL	16G#\LL
16d#/	16F#\
16c##/	16E#\
16B#/JJ	16G#\JJ
=32	=32
8A#/L	16F#\LL
.	16C##\
8a#/J	16D#\
.	16F#\JJ
16g#/LL	8A#\L
16f#/	.
16e#/	8AA#\J
16f#/JJ	.
16d#/LL	16c#\LL
16f##/	32A#\L
.	32F##\JJ
16e#/	[8D#\J
16g#/JJ	.
16f##/LL	16D#\LL]
16a#/	32F##\L
.	32A#\
16g#/	32B\
.	32A#\J
16b/JJ	16G#\JJ
=33	=33
16a#/LL	16F##\LL
16cc#/	32A#\L
.	32c#\JJ
16b/	[8en\J
16a#/JJ	.
16g#/LL	16e\LL]
16f##/	32A#\L
.	32G#\
16e#/	32A#\
.	32B\J
16d#/JJ	16c#\JJ
16dd#/LL	16E#\LL
32b#/L	16G##\
32g##/JJ	.
[8e#/J	16F##\
.	16A#\JJ
16e#/LL]	16G##\LL
32g##/L	16B#\
32b#/	.
32cc#/	16A#\
32b#/J	.
16a#/JJ	16c#\JJ
=34	=34
16g##\LL	16B#\LL
32b#\L	16d#\
32dd#\JJ	.
[8ff#\J	16c#\
.	16B#\JJ
16ff#\LL]	16A#\LL
32b#\L	16G##\
32a#\	.
32b#\	16F##\
32cc##\J	.
16dd#\JJ	16E#\JJ
16cc##\LL	16G#\LL
16ee#\	32E#\L
.	32C##\JJ
16dd#\	[8AA#\J
16ff#\JJ	.
16ee#\LL	16AA#\LL]
16gg#\	32C##\L
.	32E#\JJ
16ff#\	[8A#\J
16aa#\JJ	.
=35	=35
16gg#\LL	16A#\LL]
16bb\	32G#\L
.	32E#\J
16aa#\	16C##\
16gg#\JJ	16B\JJ
16ff#\LL	16A#\LL
16ee#\	32G#\L
.	32F#\
16dd#\	32E#\
.	32F#\J
16cc##\JJ	16G#\JJ
16dd#\LL	8F#/L
32ee#\L	.
32ff#\	.
32gg#\	8BB/
32ff#\J	.
16ee#\JJ	.
16ff#\LL	8AA#/
32ee#\L	.
32dd#\	.
32cc##\	8GG#/J
32dd#\J	.
16ee#\JJ	.
=36	=36
32a#/LLL	8FF#\L
32dd#/	.
32cc#/	.
32b/J	.
16a#/	16F#\L
16g#/JJ	16G#\JJ
16f#/LL	8A#\L
32e#/L	.
32f#/	.
32g#/	8AA#\J
32f#/J	.
16e#/JJ	.
16d#/LL	2DD#/
16f#/	.
16a#/	.
16cc##/JJ	.
(8cc##\L	.
8dd#\J)	.
==:|!	==:|!
*-	*-
!!!RWG: Key is interpreted using the Humdrum key tool.
!!!AFT: stage2
!!!END: 1994/02/04/
!!format changes:
!!content changes:
!!public access: complete
!!!KEY: 3036112576
!!!EMD: Converted from MuseData to Humdrum Dec 19, 2000, by Andreas Kornstaedt using muse2kern.
